X: 1
T: Peggy's
C: Mike MacDougall
R: Jig
M: 6/8
L: 1/8
K: Gmaj
|: BBB GBd |  cec E2G | FFF DFA | GBe d2c |
BBB GBd | cec E2g | fed cAF | AGF G3 :|
|: ded def | gbg d2g | fef A2B | cdc B2c |
ded def | gbg d2g | fed cAF | AGF G3 :|
